X: 1
T: Hon Capt Elliot's Quickstep
M: 2/4
L: 1/8
K: C
G \
| "C"c2 "G7"d/f/d/B/ | "C"ce g2 | "G7"fd "C"ec | "Dm"Ad/c/ "G7"B/G/A/ B/ \
| "Am"c2 "G7"d/f/d/B/ |  "C"e2 "Dm"f/a/g/f/ |  "C"ec "G7"AB | "C"c2 c :|
|: G \
| "G"Bc dB | "C"Gg/f/ "C7"e2 | "F"ca "Dm"g/f/e/d/ |  "G"c/B/d/c/ "G7"B/A/G/F/ \
| "C"Ee "Dm"Ff | "C"Gg "F"Aa | "C"ge/g/ "G7"fB | "C"c2 c :|
